assets/career-new/Salary 1.svg

<svg width="120" height="120" viewBox="0 0 120 120" fill="none" xmlns="http://www.w3.org/2000/svg">
<g clip-path="url(#clip0_521_624)">
<path fill-rule="evenodd" clip-rule="evenodd" d="M21 28.0233L2.324 36.6163C0.907 37.2683 0 38.6823 0 40.2373V116.004C0 118.207 1.791 119.992 4 119.992H116C118.209 119.992 120 118.207 120 116.004V40.2373C120 38.6823 119.093 37.2683 117.676 36.6163L99 28.0233L98.979 3.98025C98.979 1.78625 97.201 0.00425121 95 -0.00774879H25.021C23.957 -0.0137488 22.934 0.404251 22.179 1.15325C21.424 1.90125 21 2.91825 21 3.98025V28.0233ZM8 66.3503V112.017H112V66.3503L61.915 93.5853C61.327 93.9003 60.679 94.0673 60.011 94.0723H60C59.351 94.0733 58.694 93.9163 58.085 93.5853L8 66.3503ZM29 30.5143V30.5413V30.6303V68.6843L60 85.5423L91 68.6843V30.5133L90.979 7.94725L29 7.98925V30.5143ZM8 42.7893V57.2653L21 64.3343V36.8073L8 42.7893ZM99 36.8073V64.3343L112 57.2653V42.7893L99 36.8073ZM72.7 49.5923C72.7 51.3253 72.258 52.9503 71.375 54.4673C70.492 55.9843 69.192 57.2343 67.475 58.2173C65.758 59.2003 63.733 59.7753 61.4 59.9423V63.9923H58.2V59.8923C54.867 59.5923 52.183 58.5843 50.15 56.8673C48.117 55.1503 47.067 52.8253 47 49.8923H54.5C54.7 52.2923 55.933 53.7423 58.2 54.2423V44.6923C55.8 44.0923 53.867 43.4923 52.4 42.8923C50.933 42.2923 49.667 41.3253 48.6 39.9923C47.533 38.6593 47 36.8423 47 34.5423C47 31.6423 48.042 29.2753 50.125 27.4423C52.208 25.6093 54.9 24.5593 58.2 24.2923V20.2423H61.4V24.2923C64.6 24.5593 67.158 25.5253 69.075 27.1923C70.992 28.8593 72.067 31.1593 72.3 34.0923H64.75C64.65 33.1253 64.308 32.2843 63.725 31.5673C63.142 30.8503 62.367 30.3423 61.4 30.0423V39.4923C63.9 40.1253 65.875 40.7343 67.325 41.3173C68.775 41.9003 70.033 42.8503 71.1 44.1673C72.167 45.4843 72.7 47.2923 72.7 49.5923ZM61.4 54.3423C62.667 54.1093 63.658 53.5923 64.375 52.7923C65.092 51.9923 65.45 51.0253 65.45 49.8923C65.45 48.7923 65.1 47.9093 64.4 47.2423C63.7 46.5753 62.7 46.0253 61.4 45.5923V54.3423ZM54.3 34.1923C54.3 35.2923 54.633 36.1843 55.3 36.8673C55.967 37.5503 56.933 38.1093 58.2 38.5423V29.8923C57 30.0593 56.05 30.5093 55.35 31.2423C54.65 31.9753 54.3 32.9593 54.3 34.1923Z" fill="url(#paint0_linear_521_624)"/>
</g>
<defs>
<linearGradient id="paint0_linear_521_624" x1="-3.30396e-07" y1="-0.00774846" x2="120" y2="119.992" gradientUnits="userSpaceOnUse">
<stop stop-color="#FF0CF5"/>
<stop offset="1" stop-color="#0575E6"/>
</linearGradient>
<clipPath id="clip0_521_624">
<rect width="120" height="120" fill="white"/>
</clipPath>
</defs>
</svg>

<svg xmlns="http://www.w3.org/2000/svg" width="120" height="120" fill="none" xmlns:v="https://vecta.io/nano"><g clip-path="url(#B)"><path fill-rule="evenodd" d="M21 28.023L2.324 36.616C.907 37.268 0 38.682 0 40.237v75.767c0 2.203 1.791 3.988 4 3.988h112c2.209 0 4-1.785 4-3.988V40.237c0-1.555-.907-2.969-2.324-3.621L99 28.023 98.979 3.98c0-2.194-1.778-3.976-3.979-3.988H25.021c-1.064-.006-2.087.412-2.842 1.161A3.98 3.98 0 0 0 21 3.98v24.043zM8 66.35v45.667h104V66.35L61.915 93.585a4.08 4.08 0 0 1-1.904.487H60c-.649.001-1.306-.156-1.915-.487L8 66.35zm21-35.836v.027.089 38.054l31 16.858 31-16.858V30.513l-.021-22.566L29 7.989v22.525zM8 42.789v14.476l13 7.069V36.807L8 42.789zm91-5.982v27.527l13-7.069V42.789l-13-5.982zM72.7 49.592a9.53 9.53 0 0 1-1.325 4.875c-.883 1.517-2.183 2.767-3.9 3.75s-3.742 1.558-6.075 1.725v4.05h-3.2v-4.1c-3.333-.3-6.017-1.308-8.05-3.025s-3.083-4.042-3.15-6.975h7.5c.2 2.4 1.433 3.85 3.7 4.35v-9.55c-2.4-.6-4.333-1.2-5.8-1.8s-2.733-1.567-3.8-2.9-1.6-3.15-1.6-5.45c0-2.9 1.042-5.267 3.125-7.1s4.775-2.883 8.075-3.15v-4.05h3.2v4.05c3.2.267 5.758 1.233 7.675 2.9s2.992 3.967 3.225 6.9h-7.55c-.1-.967-.442-1.808-1.025-2.525s-1.358-1.225-2.325-1.525v9.45c2.5.633 4.475 1.242 5.925 1.825s2.708 1.533 3.775 2.85 1.6 3.125 1.6 5.425zm-11.3 4.75c1.267-.233 2.258-.75 2.975-1.55s1.075-1.767 1.075-2.9c0-1.1-.35-1.983-1.05-2.65s-1.7-1.217-3-1.65v8.75zm-7.1-20.15c0 1.1.333 1.992 1 2.675s1.633 1.242 2.9 1.675v-8.65c-1.2.167-2.15.617-2.85 1.35s-1.05 1.717-1.05 2.95z" fill="url(#A)"/></g><defs><linearGradient id="A" x1="0" y1="-.008" x2="120" y2="119.992" gradientUnits="userSpaceOnUse"><stop stop-color="#ff0cf5"/><stop offset="1" stop-color="#0575e6"/></linearGradient><clipPath id="B"><path fill="#fff" d="M0 0h120v120H0z"/></clipPath></defs></svg>
